svgs/thin/inbox-full.svg

<svg xmlns="http://www.w3.org/2000/svg" viewBox="0 0 512 512"><!--! Font Awesome Pro 6.3.0 by @fontawesome - https://fontawesome.com License - https://fontawesome.com/license (Commercial License) Copyright 2023 Fonticons, Inc. --><path d="M439 304H384c-3.031 0-5.812 1.719-7.156 4.438L347.1 368H164.9L135.2 308.4C133.8 305.7 131 304 128 304H72.97c-4.406 0-8 3.594-8 8s3.594 8 8 8h50.09l29.78 59.56C154.2 382.3 156.1 384 160 384h192c3.031 0 5.812-1.719 7.156-4.438L388.9 320h50.09c4.406 0 8-3.594 8-8S443.4 304 439 304zM508.3 304.9l-61.25-248.7C443.5 42 430.7 32 416 32H96C81.31 32 68.53 42 64.97 56.25l-61.25 248.7C1.248 314.9 0 325.2 0 335.5V432C0 458.5 21.49 480 48 480h416c26.51 0 48-21.49 48-48v-96.47C512 325.2 510.8 314.9 508.3 304.9zM496 432c0 17.64-14.36 32-32 32h-416c-17.64 0-32-14.36-32-32v-96.47c0-9.016 1.094-18.03 3.25-26.79l61.24-248.6C82.28 52.99 88.65 48 96 48h320c7.346 0 13.72 4.988 15.5 12.08l61.25 248.7C494.9 317.5 496 326.5 496 335.5V432zM112 256h288c4.406 0 8-3.594 8-8S404.4 240 400 240h-288c-4.406 0-8 3.594-8 8S107.6 256 112 256zM128 192h256c4.406 0 8-3.594 8-8S388.4 176 384 176H128c-4.406 0-8 3.594-8 8S123.6 192 128 192zM144 128h224c4.406 0 8-3.594 8-8S372.4 112 368 112h-224c-4.406 0-8 3.594-8 8S139.6 128 144 128z"/></svg>

<svg xmlns="http://www.w3.org/2000/svg" viewBox="0 0 512 512"><!-- Font Awesome Pro 6.0.0-alpha2 by @fontawesome - https://fontawesome.com License - https://fontawesome.com/license (Commercial License) --><path d="M439.031 304H384C380.969 304 378.188 305.719 376.844 308.438L347.062 368H164.938L135.156 308.438C133.812 305.719 131.031 304 128 304H72.969C68.562 304 64.969 307.594 64.969 312S68.562 320 72.969 320H123.062L152.844 379.562C154.188 382.281 156.969 384 160 384H352C355.031 384 357.812 382.281 359.156 379.562L388.938 320H439.031C443.438 320 447.031 316.406 447.031 312S443.438 304 439.031 304ZM508.285 304.918L447.031 56.25C443.469 42 430.688 32 416 32H96C81.312 32 68.531 42 64.969 56.25L3.715 304.918C1.248 314.938 0 325.215 0 335.531V432C0 458.508 21.49 480 48 480H464C490.51 480 512 458.508 512 432V335.531C512 325.215 510.752 314.938 508.285 304.918ZM496 432C496 449.645 481.645 464 464 464H48C30.355 464 16 449.645 16 432V335.531C16 326.516 17.094 317.504 19.25 308.746L80.49 60.129C82.277 52.988 88.654 48 96 48H416C423.346 48 429.723 52.988 431.496 60.078L492.75 308.742C494.906 317.504 496 326.516 496 335.531V432ZM112 256H400C404.406 256 408 252.406 408 248S404.406 240 400 240H112C107.594 240 104 243.594 104 248S107.594 256 112 256ZM128 192H384C388.406 192 392 188.406 392 184S388.406 176 384 176H128C123.594 176 120 179.594 120 184S123.594 192 128 192ZM144 128H368C372.406 128 376 124.406 376 120S372.406 112 368 112H144C139.594 112 136 115.594 136 120S139.594 128 144 128Z"/></svg>
